X:250
T:Walls of Liscarroll
M:6/8
L:1/8
R:Jig
K:DDor
A||:"Dmi"dcA AGE|GED D2E|"C"GEE cEE|GAB cde|"Dmi"dcA AGE|GED D2E|"C"GEE
cEE|"Dmi"DED D2:|:
A||"Dmi"dAd ecA|dAd ecA|"C"GEE cEE|GAB cde|1"Dmi"dAd ecA|dAd ecA|"C"GEE
cEE|"Cmi"DEDD2:|"Dmi"2dcA A
GE|GED D2E|"C"GEE cEE|"Dmi"DED D2:||
